src/assets/img/icons/payment_system/mir.svg

<svg width="57" height="16" viewBox="0 0 57 16" fill="none" xmlns="http://www.w3.org/2000/svg">
<g clip-path="url(#clip0_355_851)">
<path fill-rule="evenodd" clip-rule="evenodd" d="M5.3681 0.482602C5.87125 0.479592 7.3666 0.344912 8 2.48264C8.42667 3.92264 9.10633 6.28143 10.039 9.559H10.4188C11.419 6.10356 12.106 3.74477 12.48 2.48264C13.12 0.322644 14.72 0.482644 15.36 0.482644L20.2978 0.482651V15.8426H15.2651V6.79073H14.9276L12.1221 15.8426H8.33565L5.53017 6.78402H5.1927V15.8426H0.160004V0.482651L5.3681 0.482602ZM27.5246 0.482651V9.54127H27.9261L31.3387 2.09243C32.0011 0.610091 33.413 0.482651 33.413 0.482651H38.2832V15.8426H33.1454V6.78402H32.7439L29.3982 14.2329C28.7357 15.7085 27.2569 15.8426 27.2569 15.8426H22.3868V0.482651H27.5246ZM56.0417 7.78182C55.325 9.81269 53.0744 11.2671 50.5826 11.2671H45.1947V15.8426H40.3089V7.78182H56.0417Z" fill="#333D48"/>
<path fill-rule="evenodd" clip-rule="evenodd" d="M50.8183 0.482422H40.0527C40.3089 3.90208 43.2538 6.82952 46.3024 6.82952H56.3812C56.9628 3.98739 54.9606 0.482422 50.8183 0.482422Z" fill="#333D48"/>
</g>
<defs>
<clipPath id="clip0_355_851">
<rect width="56.8" height="16" fill="white"/>
</clipPath>
</defs>
</svg>

<svg width="57" height="16" fill="none" xmlns="http://www.w3.org/2000/svg"><g clip-path="url(#a)" fill-rule="evenodd" clip-rule="evenodd" fill="#333D48"><path d="M5.368.483C5.871.48 7.367.345 8 2.483c.427 1.44 1.106 3.798 2.039 7.076h.38c1-3.455 1.687-5.814 2.061-7.076.64-2.16 2.24-2 2.88-2h4.938v15.36h-5.033V6.79h-.337l-2.806 9.052H8.336L5.53 6.784h-.337v9.059H.16V.483h5.208Zm22.157 0V9.54h.401l3.413-7.449C32 .61 33.413.482 33.413.482h4.87v15.36h-5.138V6.785h-.401l-3.346 7.449c-.662 1.476-2.141 1.61-2.141 1.61h-4.87V.483h5.138Zm28.517 7.299c-.717 2.03-2.968 3.485-5.46 3.485h-5.387v4.576h-4.886V7.782h15.733ZM50.818.482H40.053c.256 3.42 3.2 6.348 6.25 6.348H56.38c.582-2.843-1.42-6.348-5.563-6.348Z"/></g><defs><clipPath id="a"><path fill="#fff" d="M0 0h56.8v16H0z"/></clipPath></defs></svg>
